X: 18
T: Si congi\'e pris
N: Derived from Jap3018-Si_congie_pris.krn
C: Jean Japart
%%abc-version 2.0
%%abcx-abcm2ps-target-version 5.9.1 (29 Sep 2008)
%%abc-creator hum2abc beta
%%abcx-conversion-date 2019/02/16 20:40:05
%%abc-edited-by Jesse Rodin
%%abc-edited-by Chris Gage 09-25-2013
%%abcx-initial-encoding-date 2013/10/12/
%%humdrum-veritas 1409385679
%%humdrum-veritas-data 1386208682
%%linebreak <none>
%%barnumbers 0
L: 1/4
M: 2/1
Q: 1/2=120
%%staves [1 2 3 4]
V: 1 clef=treble
V: 2 clef=treble-8
V: 3 clef=treble-8
V: 4 clef=bass
K: F
[V:1] G8 | 
[V:2] G4B4 | 
[V:3] z4G4 | 
[V:4] G,,8 | 
[V:1] F4F4 | 
[V:2] A8 | 
[V:3] A4d4 | 
[V:4] D,4D,4 | 
[V:1] G8 | 
[V:2] G4E3F | 
[V:3] d4c4 | 
[V:4] G,,4C,3D, | 
[V:1] z8 | 
[V:2] G2F4ED | 
[V:3] B6AG | 
[V:4] _E,2D,4C,B,, | 
[V:1] z4A4 | 
[V:2] C2D4C2 | 
[V:3] F2G4^F2 | 
[V:4] A,,2G,,2A,,4 | 
[V:1] B6A2 | 
[V:2] D8 | 
[V:3] G4G4 | 
[V:4] G,,8 | 
[V:1] G4G4 | 
[V:2] E8 | 
[V:3] c6B2 | 
[V:4] z4C,4 | 
[V:1] F8 | 
[V:2] z4F4- | 
[V:3] A4A4 | 
[V:4] D,3C,A,,2D,2- | 
[V:1] z4B4 | 
[V:2] F4G4 | 
[V:3] B6A2 | 
[V:4] D,C,B,,A,,G,,4- | 
[V:1] B4B4 | 
[V:2] d8- | 
[V:3] G2F2G4 | 
[V:4] G,,8 | 
[V:1] A6GF | 
[V:2] d4f4- | 
[V:3] A8 | 
[V:4] D,8- | 
[V:1] F4G4 | 
[V:2] f2ede4 | 
[V:3] z8 | 
[V:4] D,4C,4 | 
[V:1] B4A4 | 
[V:2] d6c2 | 
[V:3] z8 | 
[V:4] B,,4F,4 | 
[V:1] G4^F4 | 
[V:2] B2AGA4 | 
[V:3] z8 | 
[V:4] G,2F,E,D,4 | 
[V:1] G8 | 
[V:2] G6FE | 
[V:3] z4G4 | 
[V:4] G,,8 | 
[V:1] z4G4 | 
[V:2] F4B4- | 
[V:3] A4d4 | 
[V:4] z4G,4 | 
[V:1] F4F4 | 
[V:2] B4c4 | 
[V:3] d4c4 | 
[V:4] B,4A,4 | 
[V:1] G8 | 
[V:2] d2_e4d2 | 
[V:3] B6A2 | 
[V:4] G,6F,2 | 
[V:1] z8 | 
[V:2] c2B2c4 | 
[V:3] G4G4 | 
[V:4] E,2D,2E,4 | 
[V:1] z4A4 | 
[V:2] d4f4 | 
[V:3] F8 | 
[V:4] D,8 | 
[V:1] B4A4 | 
[V:2] e2d2d4- | 
[V:3] z8 | 
[V:4] G,4F,4 | 
[V:1] G4G4 | 
[V:2] d4^c4 | 
[V:3] z4G4 | 
[V:4] E,8 | 
[V:1] F8 | 
[V:2] d6cB | 
[V:3] A4d4 | 
[V:4] D,8- | 
[V:1] z4B4 | 
[V:2] A4B4 | 
[V:3] d6c2 | 
[V:4] D,4G,,4- | 
[V:1] B4B4 | 
[V:2] G8 | 
[V:3] B6AG | 
[V:4] G,,8 | 
[V:1] A6G2 | 
[V:2] z4d4- | 
[V:3] F6EF | 
[V:4] D,8 | 
[V:1] B4A4 | 
[V:2] d2e2f3e | 
[V:3] G2d4cd | 
[V:4] z8 | 
[V:1] G2G4^F2 | 
[V:2] c4d4- | 
[V:3] edcBA4 | 
[V:4] z4D,4 | 
[V:1] G8 | 
[V:2] d2cBB4- | 
[V:3] G8 | 
[V:4] B,,4G,,4- | 
[V:1] D6E2 | 
[V:2] B2d4cB | 
[V:3] z4d4 | 
[V:4] G,,2B,,4C,2 | 
[V:1] F4F4 | 
[V:2] A2G2A4 | 
[V:3] d6c2 | 
[V:4] D,8 | 
[V:1] G4z4 | 
[V:2] G4F4 | 
[V:3] B4A4 | 
[V:4] z4D,4 | 
[V:1] z8 | 
[V:2] D4z4 | 
[V:3] B6AG | 
[V:4] G,,2D,4C,2 | 
[V:1] z8 | 
[V:2] A3GF2E2 | 
[V:3] F3GB2A2- | 
[V:4] D,3_E,D,2C,2 | 
[V:1] z4A4 | 
[V:2] D2D4C2 | 
[V:3] A2G4^F2 | 
[V:4] D,2B,,2A,,4 | 
[V:1] B4A4 | 
[V:2] D2d3efe | 
[V:3] G4z4 | 
[V:4] G,,4D,4 | 
[V:1] G2G4FE | 
[V:2] gfed^c3B | 
[V:3] z4G4 | 
[V:4] E,8 | 
[V:1] F8 | 
[V:2] (3d4A4B4 | 
[V:3] A4F4 | 
[V:4] D,8 | 
[V:1] z8 | 
[V:2] c8 | 
[V:3] G4A4 | 
[V:4] C,8 | 
[V:1] z4B4 | 
[V:2] d6c2 | 
[V:3] B6A2 | 
[V:4] G,,8 | 
[V:1] B4B4 | 
[V:2] B2AGB2AG | 
[V:3] G4G4 | 
[V:4] z4G,,4 | 
[V:1] A4F4 | 
[V:2] F3GA4 | 
[V:3] A8 | 
[V:4] D,6E,F, | 
[V:1] B4A4 | 
[V:2] G2d3efd | 
[V:3] z4F4 | 
[V:4] G,4D,3F, | 
[V:1] G4^F4 | 
[V:2] e2c2d4- | 
[V:3] G4A4 | 
[V:4] E,4D,3C, | 
[V:1] G8 | 
[V:2] d2g4fe | 
[V:3] B4B4 | 
[V:4] B,,A,,G,,3A,,B,,C, | 
[V:1] z8 | 
[V:2] f6ed | 
[V:3] A6GF | 
[V:4] D,8 | 
[V:1] z4G4 | 
[V:2] c2d4^c2 | 
[V:3] E4E4 | 
[V:4] z4G,4 | 
[V:1] F4F4 | 
[V:2] d8 | 
[V:3] D8 | 
[V:4] A,4A,4 | 
[V:1] G8 | 
[V:2] G6FE | 
[V:3] z8 | 
[V:4] B,6A,G, | 
[V:1] z4A4 | 
[V:2] D8 | 
[V:3] z8 | 
[V:4] F,2E,2F,4 | 
[V:1] B4A4 | 
[V:2] z4F4 | 
[V:3] z8 | 
[V:4] G,4D,4 | 
[V:1] G2B4AG | 
[V:2] G8 | 
[V:3] z4d4 | 
[V:4] E,4G,4 | 
[V:1] F8 | 
[V:2] A6G2 | 
[V:3] d6c2 | 
[V:4] D,8- | 
[V:1] z8 | 
[V:2] F4D2F2- | 
[V:3] B4A4 | 
[V:4] D,8 | 
[V:1] z8 | 
[V:2] F2EDE2F2- | 
[V:3] B2ABcBAG | 
[V:4] D,4C,2D,2- | 
[V:1] z8 | 
[V:2] FED2E2C2 | 
[V:3] F2G3E^F2 | 
[V:4] D,2B,,2A,,4 | 
[V:1] z4B4 | 
[V:2] D4d3c | 
[V:3] G8 | 
[V:4] G,,8 | 
[V:1] B4B4 | 
[V:2] B3AG4 | 
[V:3] z8 | 
[V:4] G,8 | 
[V:1] A6F2 | 
[V:2] F8 | 
[V:3] z4d4 | 
[V:4] D,8 | 
[V:1] B4A4 | 
[V:2] z4f4 | 
[V:3] d6c2 | 
[V:4] G,4F,4 | 
[V:1] G4^F4 | 
[V:2] d2_e2d4- | 
[V:3] B4A4 | 
[V:4] G,4D,4 | 
[V:1] G2B3AB2- | 
[V:2] d2cBc2B2 | 
[V:3] B2AGF2G2- | 
[V:4] G,,4z2G,,2 | 
[V:1] BAG2^F3E | 
[V:2] G2d6 | 
[V:3] G2B2A4 | 
[V:4] B,,3C,D,4 | 
[V:1] G8 |]  
[V:2] d8 |]  
[V:3] G8 |]  
[V:4] G,,8 |]  



